{ "compressionlevel":-1,
 "editorsettings":
    {
     "export":
        {
         "format":"lua",
         "target":"Story.lua"
        }
    },
 "height":450,
 "infinite":false,
 "layers":[
        {
         "id":6,
         "layers":[
                {
                 "draworder":"topdown",
                 "id":2,
                 "name":"Main Menu",
                 "objects":[
                        {
                         "height":116,
                         "id":2,
                         "name":"Test Button",
                         "opacity":1,
                         "properties":[
                                {
                                 "name":"color",
                                 "type":"string",
                                 "value":"red"
                                }, 
                                {
                                 "name":"goto",
                                 "type":"string",
                                 "value":"game"
                                }, 
                                {
                                 "name":"icon",
                                 "type":"string",
                                 "value":""
                                }, 
                                {
                                 "name":"roundness",
                                 "type":"int",
                                 "value":16
                                }],
                         "rotation":0,
                         "type":"ButtonGoto",
                         "visible":true,
                         "width":190,
                         "x":305,
                         "y":167
                        }, 
                        {
                         "height":55,
                         "id":3,
                         "name":"",
                         "opacity":1,
                         "rotation":0,
                         "text":
                            {
                             "fontfamily":"Yeseva One",
                             "halign":"center",
                             "pixelsize":18,
                             "text":"00000000000000000",
                             "wrap":true
                            },
                         "type":"",
                         "visible":true,
                         "width":190,
                         "x":305,
                         "y":167
                        }],
                 "opacity":1,
                 "properties":[
                        {
                         "name":"Background",
                         "type":"string",
                         "value":""
                        }, 
                        {
                         "name":"Bg offset",
                         "type":"list",
                         "value":[
                                {
                                 "type":"int",
                                 "value":0
                                }, 
                                {
                                 "type":"int",
                                 "value":0
                                }]
                        }, 
                        {
                         "name":"Bg scale",
                         "type":"list",
                         "value":[
                                {
                                 "type":"int",
                                 "value":0
                                }, 
                                {
                                 "type":"int",
                                 "value":0
                                }]
                        }],
                 "type":"objectgroup",
                 "visible":true,
                 "x":0,
                 "y":0
                }],
         "name":"Main Menu",
         "opacity":1,
         "type":"group",
         "visible":true,
         "x":0,
         "y":0
        }],
 "nextlayerid":86,
 "nextobjectid":236,
 "orientation":"orthogonal",
 "renderorder":"right-down",
 "tiledversion":"1.12.2",
 "tileheight":1,
 "tilesets":[],
 "tilewidth":1,
 "type":"map",
 "version":"1.10",
 "width":800
}